svgs/light/steak.svg

<svg xmlns="http://www.w3.org/2000/svg" viewBox="0 0 576 512"><!-- Font Awesome Pro 6.0.0-alpha2 by @fontawesome - https://fontawesome.com License - https://fontawesome.com/license (Commercial License) --><path d="M466.757 118.875C435.257 83 401.382 64 368.882 64C327.007 64 290.382 96.75 275.507 147.375L274.882 149.625C257.507 210.25 205.507 259.875 120.257 297C63.007 321.875 63.757 357.75 66.757 372C77.382 423.5 158.257 446.875 228.882 446.875C326.507 446.875 417.507 407 478.382 337.625C527.257 281.875 522.007 181.75 466.757 118.875ZM454.382 316.5C390.132 389.75 301.632 414.875 228.882 414.875C123.382 414.875 51.007 362 133.132 326.25C279.507 262.5 300.007 177.625 306.257 156.25C317.007 119.625 341.507 96 368.882 96C391.632 96 417.882 111.625 442.757 140C487.132 190.5 492.507 273 454.382 316.5ZM384.007 191.875C366.382 191.875 352.007 206.25 352.007 223.875C352.007 241.625 366.382 255.875 384.007 255.875S416.007 241.625 416.007 223.875C416.007 206.25 401.632 191.875 384.007 191.875ZM514.882 76.625C467.882 23.125 416.257 0 368.882 0C298.257 0 237.007 51.125 214.132 129.375C165.007 269.375 1.382 212.375 0.007 351.625C-1.118 467.5 126.382 512 239.257 512C244.882 512 250.507 511.875 256.007 511.625C343.757 508.25 443.382 474.625 526.507 379.875C596.757 299.75 591.632 164 514.882 76.625ZM502.507 358.75C418.757 454 321.632 477.125 254.757 479.75C249.632 479.875 244.507 480 239.257 480C162.257 480 95.507 458.875 60.507 423.625C41.007 403.875 31.757 380.5 32.007 352C32.507 302.375 55.507 290.375 107.507 267.75C155.882 246.625 216.132 220.375 244.257 140L244.632 139.25L244.757 138.375C263.757 73.75 312.382 32 368.882 32C410.882 32 453.132 54.75 490.882 97.75C557.257 173.375 562.382 290.375 502.507 358.75Z"/></svg>

<svg xmlns="http://www.w3.org/2000/svg" viewBox="0 0 576 512"><!--! Font Awesome Pro 6.3.0 by @fontawesome - https://fontawesome.com License - https://fontawesome.com/license (Commercial License) Copyright 2023 Fonticons, Inc. --><path d="M466.9 118.9c-31.5-35.88-65.48-54.88-97.98-54.88c-41.88 0-78.5 32.75-93.38 83.38L274.9 149.6C257.5 210.2 205.6 259.9 120.4 297C63.11 321.9 63.76 357.8 66.76 372c10.62 51.5 91.5 74.88 162.1 74.88c97.62 0 188.6-39.86 249.5-109.2C527.3 281.9 522.1 181.8 466.9 118.9zM454.4 316.5c-64.25 73.25-152.8 98.33-225.5 98.33c-105.5 0-177.9-52.79-95.75-88.54c146.4-63.75 166.9-148.6 173.1-169.1C317 119.7 341.5 96 368.9 96c22.75 0 49 15.62 73.88 44C487.1 190.5 492.5 273 454.4 316.5zM384 191.9c-17.62 0-32 14.38-32 32c0 17.75 14.38 32 32 32s32-14.25 32-32C416 206.3 401.6 191.9 384 191.9zM514.9 76.63C467.9 23.13 416.3 0 368.9 0C298.3 0 237 51.13 214.1 129.4c-49.12 140-212.8 83.01-214.1 222.3C-1.117 467.5 126.3 512 239.2 512c5.625 0 11.3-.1085 16.8-.3585c87.75-3.375 187.4-37.08 270.5-131.8C596.8 299.7 591.6 164 514.9 76.63zM502.5 358.8c-83.75 95.25-180.9 118.4-247.7 121C249.6 479.9 244.5 480 239.3 480c-77 0-143.8-21.12-178.8-56.38C41.01 403.9 31.76 380.5 32.01 352c.5-49.63 23.5-61.63 75.5-84.25C155.9 246.6 216.1 220.4 244.3 140L244.6 139.2l.125-.875C263.8 73.75 312.4 32 368.9 32c42 0 84.25 22.75 122 65.75C557.3 173.4 562.4 290.4 502.5 358.8z"/></svg>
